X:1
T:Quartet
T:Dvorak - String Quartet No. 12 in F major "American"
T:Quartet for 2 Violins, Viola and Cello OP 96 
T:Antonín Dvořák
C:Antonín Dvořák
%%score [ ( 1 2 ) 3 4 ( 5 6 ) ]
L:1/8
Q:1/4=112
M:4/4
K:F
V:1 treble nm="Violin I"
V:2 treble 
V:3 treble nm="Violin II"
V:4 alto nm="Viola"
V:5 bass nm="Violoncello"
V:6 bass 
V:1
"^Allegro ma non troppo. M.M." z!pp! (f/a/ f/a/f/a/ f/a/f/a/ f/a/f/a/) | %1
 (f/a/f/a/ f/a/f/a/ f/a/f/a/ f/a/f/a/) |: (f/a/f/a/ f/a/f/a/ f/a/f/a/ f/a/f/a/) | %3
 (f/a/f/a/ f/a/f/a/ f/a/f/a/ f/a/f/a/) | (f/a/f/a/ f/a/f/a/ f/a/f/a/ f/a/f/a/) | %5
 (f/a/f/!<(!a/ f/a/f/a/) (f/a/f/c/ A/F/!<)!A/c/) |!mf! (f a2!<(! c') (d'>.f'!<)! .d'2) | %7
 (c'>a fg/a/) c'4 | !>!c>!<(!.d .f/.d/ z !>!c>.d .f/.d/!<)! z | %9
!<(! (c/f/a/c'/)!<)!!>(! (c'>a!>)! f3) z | z4!f! (c/f/a/c'/) c'>.g | %11
 f z z2 (c/!<(!f/a/c'/) c'>!<)!.g | f z z2 A/d/!<(!f/a/!<)! a>.e | d z z2 A/d/f/a/ a>.e | %14
!ff! (d/f/a/).d'/ (d/f/a/).d'/ (d/f/a/).d'/!>(! (d/f/a/).d'/!>)! |!>(! D8-!>)! |!p! D2 z2 z4 | %17
!p! (F4 B,4) | (.D.D).D.D (.D.D).D.D |!<(! (d2- d/e/f/a/) (a2- a/g/f/d/)!<)! | %20
!<(! (c f2 a) (c'>.f' d'2)!<)! |!f! (c'a fg/a/) c'4 |!>(! (c'_a _ea/b/) c'4!>)! | %23
 .c'(_a/c'/) .c'!>(!(a/c'/) .c'(a/c'/) .c'(a/c'/)!>)! |!pp!!>(! T^d'8!>)! | %25
 .e'/.e'/ z/!p! .d'/ .c'/.c'/ z/ (=b/ ag e2) | (ag e2) (ag e2) |!<(! (eg)(Pgf) (Ped)(PcA)!<)! | %28
 .A/.A/ z/ .c/ .=B/.B/ z/ .E/ .A/.A/ z/ .c/ .=B/.B/ z | (e^ga=b) (c'd' =g/e/a/g/) | %30
 (c'd' g/e/a/g/) (c'd' g/e/a/g/) |!<(! (c'!>!d'c'!>!d') (c'!>!d'c')!>!=b!<)! | %32
 (a!<(!!>!=ba!>!b) (a!>!ba)!>!f!<)! | e/!>(!e/ z/ d/ c/c/ z/ A/!>)! e4 | e/e/ z/ d/ c/c/ z/ A/ e4 | %35
!ff! (e2 f2) (e2 f2) |!<(! (e2 f2) (gfed)!<)! | (A2!>(! =B2) (A2 GE)!>)! | %38
!p! (A2!>(! =B2) (A2 GE)!>)! |!pp! A8- | A2!sfz!!>(! B4 F2!>)! |!p!!>(! E8- | %42
[Q:1/4=100]"^rit." E8!>)! |!pp![Q:1/4=112]"^in Tempo" (!tenuto!A2 !tenuto!=B2) (^c2 .B.A) | %44
 (=B^f/B/ .A.^F) F4 | (=B!<(! A2 ^F) .E/.E/.A/.^c/ !>!e2!<)! | %46
!>(! ([d^f]3 [^Fd]) (^c/!>)!e/ !>!e3) | (!tenuto!A2 !tenuto!=B2) (^cd/c/ BA) | %48
 (5:4:5(=B/^f/^c/B/A/) ^F.F F4 |!<(! (=B A2 F) !wedge!E/!wedge!E/!wedge!A/!wedge!^c/ e2!<)! | %50
!f! [d^f]3 [^Fd]!>(! [^E^c]4!>)! | (^c2 d2 =e2) (d/=B/).B |!>(! ^f8!>)! | %53
!>(! (^c2 d2 =e2) !wedge!d/!wedge!=B/!wedge!B!>)! | =g8 |!<(! ^g2 =b2!<)!!f! (3(a^f.e) e2 | %56
 ([^Fd]2 [d^f]2){/^c} (3(fe).c- [Ec]2 |!>(! ([D=B]2"^dim." [Ge]2) ([^Fd] [DB]2) [DB]!>)! | %58
[Q:1/4=120]"^molto rit"!>(! ((A F2) F F E2 D/!>)!!p!=B,/) |[Q:1/4=113]"^in Tempo" A,2 z2 z4 | z8 | %61
!pp! (e>=c A>c e4) | (e>c A>c e4) :|!pp! (_e/c/e/c/ e/c/e/c/ e/c/e/c/ e/c/e/c/) | %64
 (_e/c/e/c/ e/c/e/c/ e/c/e/c/ e/c/e/c/) | (_e/c/e/c/ e/c/e/c/ e/c/e/c/ e/c/e/c/) | %66
!<(! (_e/c/e/c/ e/c/e/c/ e/c/e/c/ e/c/e/c/)!<)! |!<(! (^c e2 ^g) (a>.^c' a2)!<)! | %68
!mf! [^c^g] z!<(! [c^f] z [ce] z [^G^d] z!<)! |!f! (^c3 ^d/!<(!c/) (^G ^g2) G!<)! | %70
 [^c^g] z [^Fc^f] z [Ece] z [^G^d] z |!ff! !>!^c>^d !>!e/.c/ z z/ !>!e3/2 ^f/!>!a/.^g/ z/ | %72
 !>!^g>a !>!^c'/=b/ z g/^f/ z!>(! e/^c/ z!>)! |!mf! (^f3 e!>(! ^d2) (3(^c=B^G)!>)! | %74
!p! (^c3!>(! =B) ^G2 (3E^F^^F!>)! |!pp! (.G.G!<(!.G.G) (.G.G.G.G) | %76
 (^G2!<)!!f! =B2!>(! A2 G2)!>)! |!ff!!p!!>(! !///![A,^F]8!>)! |!p!!>(! !///![A,^F]8!>)! | %79
 [A,^F]!pp! !tenuto![FA]2 !tenuto![FA]/[FA]/- [FA] !tenuto![FA]2 !tenuto![FA]/[FA]/- | %80
 [FA] !tenuto![^FA]2 !tenuto![FA]/[FA]/- [FA] !tenuto![FA]2 !tenuto![FA]/(F/ | %81
 D) [DA]2 [DA]/[DA]/- [DA] [A,A]2 [A,A]/[A,A]/- | %82
 [A,A] [A,A]2 [A,A]/[A,A]/- [A,A] [A,A]2 [^FA]/[FA]/ |!pp!!<(! ([^FA]2!<)!!>(! [d^f]4!>)! [FA]2) | %84
 [^FA]4 z2 [FA]2 |!<(! ([^FA]2!<)!!>(! [d^f]4!>)! [FA]2) | [^FA]4 z2 [FA]2- | %87
 [FA] !>![A^f]2!<(! ([^FA] [G=B]) [Bg]2 [GB]!<)! | A z z2 z4 | z8 | z8 | z8 | z8 |] %93
V:2
 x8 | x8 |: x8 | x8 | x8 | x8 | x8 | x8 | x8 | x8 | x8 | x8 | x8 | x8 | x8 | x8 | x8 | x8 | x8 | %19
 x8 | x8 | x8 | x8 | x8 | x8 | x8 | x8 | x8 | x8 | x8 | x8 | x8 | x8 | x8 | x8 | x8 | x8 | x8 | %38
 x8 | x8 | x8 | x8 | x8 | x8 | x8 | x8 | x4 E4 | x8 | x8 | x8 | x8 | x8 | x8 | x8 | x8 | x8 | x8 | %57
 x8 | x8 | x8 | x8 | x8 | x8 :| x8 | x8 | x8 | x8 | x8 | x8 | x8 | x8 | x8 | x8 | x8 | x8 | x8 | %76
 x8 | x8 | x8 | x8 | x15/2 A/- | A x7 | x8 | x8 | x8 | x8 | x8 | x8 | x8 | x8 | x8 | x8 | x8 |] %93
V:3
 z4 z!pp! (A/c/ A/c/A/c/) | (A/c/A/c/ A/c/A/c/ A/c/A/c/ A/c/A/c/) |: %2
 (A/F/A/F/ A/F/A/F/ A/F/A/F/ A/F/A/F/) | (A/F/A/F/ A/F/A/F/ A/F/A/F/ A/F/A/F/) | %4
 (A/F/A/F/ A/F/A/F/ A/F/A/F/ A/F/A/F/) | (A/F/A/F/ A/F/A/F/ A/F/A/F/ A/F/A/F/) | %6
 (A/F/A/F/ A/F/A/F/ A/F/A/F/ A/F/A/F/) | (A/F/A/F/ A/F/A/F/ A/F/A/F/ A/F/A/F/) | %8
 (A/!<(!F/A/F/ A/F/A/F/ A/F/A/F/ A/F/A/F/)!<)! |!<(! (A/F/A/F/ A/F/A/F/ A/F/A/F/ A/F/A/F/)!<)! | %10
 F z!f!!<(! (uF/G/A/B/)!<)! c2 (EB | A) z (uF/!<(!G/A/B/)!<)! c2 (EB | %12
 A) z (ud/!<(!e/f/g/)!<)! (a2 ^c2) | d z (ud/!<(!e/f/g/)!<)! (a2 ^c2) | %14
!ff! !>!d.D!>!d.D !>!d.D!>!d.D |!>(! (D/F/A/).d/ (D/F/A/).d/ (D/F/A/).d/!p! (D/F/A/).d/!>)! | %16
!p! (.D.D.D.D) (.D.D.D.D) | (.D.D.D.D) (.D.D.D.D) |!pp! (d2- d/f/a/d'/) (a2- a/g/f/d/) | %19
!<(! (d2 A2) (F2 dA)!<)! |!<(! A2 (af) (a3 f)!<)! |!f! (afAf) (geFe) |!>(! (_ec_Ec) (=ec=Ec)!>)! | %23
!p! ._A(c/A/) .A!>(!(c/A/) .A(c/A/) .A(c/A/)!>)! | .c(A/c/) .c(A/c/)!>(! .c(A/c/) .c(A/c/)!>)! | %25
 (E^GA=B) (c2- c/B/d/c/) | (c2- c/=B/d/c/) (c2- c/=B/d/c/) |!<(! (ce)(Ped) (Pc=B)(PAF)!<)! | %28
!>(! E8!>)! | .e/!>(!.e/ z/ .d/ .c/.c/!>)! z/!<(! (.B/ AG E2)!<)! | %30
!<(! (AG!<)! E2)!<(! (AG E2)!<)! |!<(! G/G/ z/ _A/ G/G/ z/ A/ G/G/ z/ A/ G/G/ z/ F/!<)! | %32
 E/E/!<(! z/ F/ E/E/ z/ F/ E/E/ z/ F/ E/E/ z/ D/!<)! |!f! (E3 c) =B/B/ z/ A/ ^G/G/ z/ E/ | %34
!f! (E3 c) =B/B/ z/ A/ ^G/G/ z/ E/ |!ff! (^c2 d2) (c2 d2) |!<(! (^c2 d=c) (=BAFE)!<)! | %37
 E E2!>(! E2 E2 E-!>)! |!p! E E2!>(! E2 E2 E!>)! |!pp! (E2 F2 E2 F2) | %40
!<(! (E2 F3!<)!!>(! G/F/ ED)!>)! |!p! (C2!>(! D2 C2 =B,2 | C2 D2 A,2!>)! =B,2) |!ppp! ^C4 [CE]4 | %44
 [=B,^F]8- | [B,F]4 [EA]4 |!>(! [^Fd]4 [E^c]4!>)! | E8 | ^F8 | F4 [EA]4 | %50
!f! [^Fd]4!>(! (=B^G^E^c)!>)! | (E2 ^F2) (G2 FD) |!>(! (^c2 d2 =e2) (d/=B/).B!>)! |!pp! ^A6 =B2 | %54
!<(! (d2 e2 f2) !wedge!e/!wedge!c/!wedge!c!<)! |!<(! (dede)!<)!!f! (Ee^cA) | (^F=BFB) (=G^cGE) | %57
 (D^F!>(!^A=G =B^F=AD)!>)! |!>(! =B,4!p! ^G,4!>)! |!p! (A, ^C2 E) (^F>A F2) | %60
!>(! (E>^C A,>C E4)!>)! |!pp! A6 (=GE | A6) (GE) :|!pp! (A/c/A/c/ A/c/_E/c/ A/c/A/c/ A/c/A/c/) | %64
 (A/c/A/c/ A/c/_E/c/ A/c/A/c/ A/c/A/c/) | (A/c/_E/c/ A/c/E/c/ A/c/A/c/ A/c/A/c/) | %66
 (_A/_E/A/!<(!E/ A/E/A/E/ A/E/A/E/ A/E/A/E/)!<)! |!<(! (^C E2 ^G) (A>.^c A2)!<)! | %68
!mf! (^c3!<(! ^d/c/) (^G ^g2) .G!<)! |!f! [^c^g] z [^Fc^f] z [Ece] z [^G^d] z | %70
 (^c3!<(! ^d/c/) (^G ^g2)!ff! G!<)! | !>![^G,E]8 | [^G,E]/[G,E]/ [G,E]3-!>(! [G,E]4!>)! | %73
!mf! ^G G2 G2!>(! G2 G-!>)! |!p! G!>(! ^G2 G2 G2 (E!>)! | ^E) E2 E2 E2 E- | E ^E2 E2 E2 (E | %77
 ^F) z z2 z4 | z8 |!pp! D/D/D/D/ DD/D/ D/D/D/D/ DD/D/ | D/D/D/D/ DD/D/ D/D/D/D/ DD/D/ | %81
 D/D/D/D/ DD/D/ A,/A,/A,/A,/ A,A,/A,/ | A,/A,/A,/A,/ A,A,/A,/ D/D/D/D/ DD/D/ | %83
!pp! (A,/D/^F/A/) (A>F D3) z | (A,/D/^F/A/) (A>F D3) z | (A,/D/^F/A/) (A>F D3) z | %86
 (A,/D/^F/A/) (A>F D3) z | (^D/^G/!<(!=B/^d/) (.d>.F) (E/G/B/e/) (.e>G)!<)! | z8 | z8 | z8 | z8 | %92
 z8 |] %93
V:4
 z8 | z8 |:!mf! (F, A,2 C) D>.F D2 | (C>A, F,G,/A,/ C4) | %4
 !>!C,>.D, .F,/.D,/ z !>!C,>.D, .F,/.D,/ z |!<(! C,/F,/A,/C/!<)!!>(! C>!>)!!mf!A, F,3 z | %6
!pp! (F,/A,/F,/A,/ F,/A,/F,/A,/ F,/A,/F,/A,/ F,/A,/F,/A,/) | %7
 (F,/A,/F,/A,/ F,/A,/F,/A,/ F,/A,/F,/A,/ F,/A,/F,/A,/) | %8
 (F,/!<(!A,/F,/A,/ F,/A,/F,/A,/ F,/A,/F,/A,/ F,/A,/F,/A,/)!<)! | %9
!<(! (F,/A,/F,/A,/ F,/A,/F,/A,/ F,/A,/F,/A,/ F,/A,/F,/A,/)!<)! | F, z!f! (F,2 A,2) (B,/A,/G,/C/) | %11
 C z (F,2 A,2) (B,/A,/G,/C/ | F,) z (D2 F2) (G/F/E/G/) | F z (D2 F2) (G/F/E/G/) | %14
!ff! F,>G, F,>G, F,>G, F,>G, |!>(! F,>G, F,>G, F,>G,!p! F,>G,!>)! |!p! D,2 z2 z4 | %17
!p! (D2- D/F/A/d/) (A2- A/G/F/D/) |!pp! (F4 B,4) |!<(! (.D.D.D.D) (.D.D.D.D)!<)! | %20
!<(! (F/A/F/A/ F/A/F/A/ F/A/F/A/ F/A/F/A/)!<)! |!f! (F/A/F/A/ F/A/F/A/) (C/E/C/E/ C/E/C/E/) | %22
!>(! (C/_E/C/E/ C/E/C/E/) (B,/=E/B,/E/ B,/E/B,/E/)!>)! | F F2!>(! F2 F2 F-!>)! | %24
 F F2!>(! F2 F2 F!>)! |!p! E4- E(.E.E.E) | (.E.E.E.E) (.E.E.E.E) | .A,!<(!(A,=B,)(B, C)(CD)(D!<)! | %28
 C)E D2 C!>(!E D2!>)! | (c=BA^G) (ED/F/ E2-) | E(D/F/ E2- E)(D/F/ E2) | %31
!<(! E/E/ z/ F/ E/E/ z/ F/ E/E/ z/ F/ E/E/ z/ D/!<)! | %32
 C/C/!<(! z/ D/ C/C/ z/ D/ C/C/ z/ D/ C/C/ z/ =B,/!<)! |!f! (C3 E) D/D/ z/ C/ =B,/B,/ z/ D/ | %34
!f! (C3 E) D/D/ z/ C/ =B,/B,/ z/ E/ |!ff! A8 |!<(! A4 (F2 =B,2)!<)! | (C2!>(! D2 C4)!>)! | %38
!p! (C2!>(! D2 C4)!>)! |!pp! ^C2 D2 C2 D2 |!<(! ^C2 D3!<)!!>(! E/D/ =C_B,!>)! | %41
!p! (C2!>(! =B,2 A,2 ^G,2 | A,2 ^F,4!>)! ^G,2) |!ppp! E,4 A,4- | A,8 |!<(! A,4 [E,A,]4!<)! | %46
!>(! [D,=B,]4 [E,^C]4!>)! |!pp! ^C8 | A,8 |!<(! A,4 [E,A,]4!<)! |!f! (D,^F,D=B,)!>(! ^G,4!>)! | %51
 ^A,6 (=B,D) |!>(! (E2 ^F2 G2) (F/D/).D!>)! |!>(! (E2 ^F2 G2 FD)!>)! | %54
!<(! (F2 G2 A2) !wedge!G/!wedge!E/!wedge!E!<)! |!<(! (DEDE)!<)!!f! (^CECA,) | %56
 (^F,=B,F,B,) (G,^CG,E,) | (D,^F,!>(!^A,=G, =B,^F,=A,D,)!>)! |!>(! [F,A,]4!p! D,4!>)! | %59
!p! ^C,/E,/C,/E,/ C,/E,/C,/E,/ C,/E,/C,/E,/ C,/E,/C,/E,/ | %60
!>(! ^C,/E,/C,/E,/ C,/E,/C,/E,/ C,/E,/C,/E,/ C,/E,/C,/E,/!>)! | %61
!pp! ^C,/E,/C,/E,/ C,/E,/C,/E,/ C,/E,/C,/E,/ C,/E,/C,/E,/ | %62
 ^C,/E,/C,/E,/ C,/E,/C,/E,/ C,/E,/C,/E,/ C,/E,/C,/E,/ :|!mf! (^F,!<(! A,2 B,) (C>._E C2)!<)! | %64
 (C>B, A,^G,/A,/) C4 | (C>B, A,^G,/A,/) C4 | (C>B,!<(! _A,=G,/A,/) C4!<)! | %67
!<(! (^G,/E,/G,/E,/ G,/E,/G,/E,/) (=A,/^F,/A,/F,/ A,/F,/A,/F,/)!<)! | %68
!mf! (^G,/E,/G,/E,/)!<(! (^F,/A,/F,/A,/) (^C/G,/C/G,/) (^B,/G,/^B,/G,/)!<)! | %69
!f! (^G,/E,/G,/E,/) (^F,/A,/F,/A,/) (^C/G,/C/G,/) (^B,/G,/^B,/G,/) | %70
 (^G,/E,/G,/E,/) (^F,/A,/F,/A,/) (^C/G,/C/G,/) (^B,/G,/^B,/G,/) | ^C2 z2 z4 | z8 | z8 | z8 | %75
 z4!<(! =B,2 ^B,^C!<)! |!f! D4!>(! ^C2 =B,2!>)! |!ff!!p!!>(! !///![D,A,]8!>)! |!p! [D,A,] z z2 z4 | %79
!mf! !>!^F,>!<(!G, (A,/>F,/) z !>!A,>!<)!=B, (D/>B,/) z | %80
!mf! D>E (!tenuto!G/^F/) z (!tenuto!E/>D/) z (!tenuto!=B,/A,/4) z/4 z | %81
({/A} G3!>(! ^F) (E2 (3D=B,A,)!>)! |!p!!>(! (D3 ^C A,2)!>)! (3(^F,G,^G,) | %83
 A,.[D,A,].[D,A,].[D,A,] .[D,A,].[D,A,].[D,A,].[D,A,] |!<(! (A,2!>(! ^F4!<)! A,2)!>)! | %85
 .[D,A,].[D,A,].[D,A,].[D,A,] .[D,A,].[D,A,].[D,A,].[D,A,] |!<(! (A,2!>(! ^F4!<)! A,2)!>)! | %87
 !>!=B,B,!>!B,!<(!B, !>!B,B,!>!B,B,!<)! | z8 | z8 | z8 | z8 | z8 |] %93
V:5
 z4 z2 z!pp! .F,, | F,,8- |: F,,8- | F,,8- | F,,8- | (F,,4- F,,A,,C,A,,) | F,,3 z z2 z"^pizz." F, | %7
 A,, z C, z z2 F,F,, |"_cresc." z2 z D,, z!<(! F,,A,,C,!<)! |!<(! F, z A,F, DCD, z!<)! | %10
!f!"^arco" (F,,/A,,/C,/F,/) !>!F,>.D, C,2 z C, | (F,,/!<(!A,,/C,/F,/)!<)! !>!F,>.D, C,2 z C, | %12
 (D,/!<(!F,/A,/D/)!<)! !>!D>.B, A,2 z A, | (D,/F,/A,/D/) D>.B, A,2 z A, | %14
!ff! D,>B,, D,>B,, D,>B,, D,>B,, |!>(! D,>B,, D,>B,, D,>B,,!p! D,>B,,!>)! | %16
"_piu piano" (D,2- D,/F,/A,/D/) (A,2- A,/G,/F,/D,/) | D, z z2 z4 | z8 |!p!!<(! (F4 =B,4)!<)! | %20
!<(! C8!<)! |!f! (C4 B,4) |!>(! (_A,4 G,4)!>)! | F,/F,/ z F,/F,/!>(! z F,/F,/ z F,/F,/ z!>)! | %24
 [F,A,]/[F,A,]/!>(! z [F,A,]/[F,A,]/ z [F,A,]/[F,A,]/ z [F,A,]/[F,A,]/ z!>)! | %25
 E, z z2 z2"^pizz."!pp! [A,,E,]2 | z2 [A,,E,]2 z2 [A,,E,]2 | z!<(! A,, z =B,, z C, z D,!<)! | %28
 E,E,, z E, E,E,, z"^arco" E,, |!>(! A,,4 .A,,.=B,, !>!C,2!>)! | .A,,.=B,, !>!C,2 .A,,.B,, !>!C,2 | %31
!<(! C,=B,,/B,,/ C,B,,/B,,/ C,B,,/B,,/ C,^G,,/G,,/!<)! | %32
 A,,!<(!^G,,/G,,/ A,,G,,/G,,/ A,,G,,/G,,/ A,,D,,/D,,/!<)! | !>!E,,4 !>!E,3 .E,, | %34
!ff! E,,4 !>!E,3 .E,, | %35
!ff! (G,,/A,,/G,,/A,,/ G,,/A,,/G,,/A,,/) (G,,/A,,/G,,/A,,/ G,,/A,,/G,,/A,,/) | %36
!<(! (G,,/A,,/G,,/A,,/) (G,,/F,,/E,,/D,,/)!<)! D,,4 | %37
 E,,/E,,/ z/ E,,/!>(! E,,/E,,/ z/ E,,/ E,,/E,,/ z/ E,,/ E,,/E,,/ z/ E,,/!>)! | %38
!p! E,/E,/ z/ E,/!>(! E,/E,/ z/ E,/ E,/E,/ z/ E,/ E,/E,/ z/ E,/!>)! |!pp! G,8- | %40
!<(! G,2 (F,E,!<)!!>(! D,4)!>)! |!p! E,8 |!>(! E,,8!>)! |!ppp! A,,8 | D,8 |!<(! (D,4 ^C,4)!<)! | %46
!>(! (^G,,4 A,,4)!>)! |!pp! A,8 | D,8- |!<(! D,4 ^C,4!<)! |!f! ^G,,4!>(! ^C,4!>)! | ^F,6 =B,2 | %52
!>(! ^F,6 =B,,2!>)! |!pp! (^F,,6 =B,,2) |!<(! (G,,6 C,2)!<)! |!<(! =B,,4!<)!!f! (^C,2 A,,2) | %56
 ^G,,4 ^A,,4 | (=B,,2!>(! ^C,2 D,2 F,2)!>)! |!>(! (D,2 D,,2!p! E,,4)!>)! |!p! A,,8- | %60
!>(! A,,8-!>)! |!pp! A,,2 z2"_pizz." A,,2 z2 | A,,2 z2 A,,2 z2 :| z2"_arco."!pp! ^F,,6 | %64
 ^F,,6 ^F,,2- | F,,4 ^F,,4- | F,,2 ^F,,6 | %67
!<(! E,,/^G,,/E,,/G,,/ E,,/G,,/E,,/G,,/ (^F,,/A,,/F,,/A,,/ F,,/A,,/F,,/A,,/)!<)! | %68
!mf!!mf! (E,,/^G,,/E,,/G,,/)!<(! (A,,/^F,,/A,,/F,,/) (G,,/^C,/G,,/C,/) (G,,/^B,,/G,,/^B,,/)!<)! | %69
!f! (E,,/^G,,/E,,/G,,/) (A,,/^F,,/A,,/F,,/) (G,,/^C,/G,,/C,/) (G,,/^B,,/G,,/^B,,/) | %70
 (E,,/^G,,/E,,/G,,/) (A,,/^F,,/A,,/F,,/) (G,,/^C,/G,,/C,/) (G,,/^B,,/G,,/^B,,/) |!ff! !>!^C,8 | %72
 ^C,/C,/!>(! C,3- C,4!>)! |!mf! (^C4 E4) |!p! E6 (E^C) |!pp! (^C2 ^C,) z!<(! (C,2 ^C,,) z!<)! | %76
!f! (^C^C,/) z/ (C,^C,,/)!>(! z/ (C,,C,/) z/ (C,C,,/) z/!>)! | %77
!ff! (=D,,D,/) z/ (D,D/)!>(! z/ (DD,/) z/ (D,D,,/) z/!>)! | %78
!p! (DD,/) z/!>(! (D,D,,/) z/ (D,,A,,/) z/ (A,,D,,/) z/!>)! | %79
"_pizz."!pp! .D,,.A,,.D,,.A,, .D,,.A,,.D,,.A,, | .D,,.A,,.D,,.A,, .D,,.A,,.D,,.A,, | %81
 .D,,.A,,D,,A,, ^F,,A,,F,,A,, | ^F,,A,,F,,A,, F,,A,,D,,A,, |!pp! D,8- | %84
 D,(.D,.D,.D,) (.D,.D,.D,.D,) | C,8- | C,(.C,.C,.C,) (.C,.C,.C,.C,) | =B,, =B,2 B,,2 B,2 B,,- | %88
 B,, B,2 =B,,2 B,2 B,, | z8 | z8 | z8 | z8 |] %93
V:6
 x8 | x8 |: x8 | x8 | x8 | x8 | x8 | x8 | x8 | x8 | x8 | x8 | x8 | x8 | x8 | x8 | x8 | x8 | x8 | %19
 x8 | x8 | x8 | x8 | x8 | x8 | x8 | x8 | x8 | x8 | x8 | x8 | x8 | x8 | x8 | x8 | x8 | x8 | x8 | %38
 x8 | x8 | x8 | x8 | x8 | x8 | x8 | x8 | x8 | x8 | z4 =B,4- | B,4 x4 | x8 | x8 | x8 | x8 | x8 | %55
 x8 | x8 | x8 | x8 | x8 | x8 | x8 | x8 :| x8 | x8 | x8 | x8 | x8 | x8 | x8 | x8 | x8 | x8 | x8 | %74
 x8 | x8 | x8 | x8 | x8 | x8 | x8 | x8 | x8 | x8 | x8 | x8 | x8 | x8 | x8 | x8 | x8 | x8 | x8 |] %93

